X: 7832
T: Comin' Thro' The Rye
R: slide
M: 12/8
K: Dmajor
ABA A2f e2d e2F|AFA BAB d2e dcB|
ABA a2f e2d e2F|1 ~A3 BAB d2e dcB:|2 ~A3 BAB d3 d ((3efg)||
a2f def e2d e2f|a2f dfa ~b3 baf|
a2f g2e fed e2F|1 ~A3 BAB d3 d ((3efg):|2 ~A3 BAB d2e dcB||~A3 BAF D3 D3||

